dist/images/icons/icon-user.svg

<svg width="20" height="19" viewBox="0 0 20 19" fill="none" xmlns="http://www.w3.org/2000/svg">
<path d="M19.0554 18.7297H0.658772C0.492111 18.7297 0.357086 18.6015 0.357086 18.4432V16.8114C0.357086 14.0963 2.68323 11.8873 5.54236 11.8873H14.1716C17.0309 11.8873 19.3571 14.0963 19.3571 16.8114V18.4432C19.3571 18.6015 19.2221 18.7297 19.0554 18.7297ZM9.85697 11.1173C6.82522 11.1173 4.35855 8.7749 4.35855 5.89587C4.35855 3.01684 6.82522 0.674438 9.85697 0.674438C12.889 0.674438 15.3554 3.01684 15.3554 5.89587C15.3554 8.7749 12.889 11.1173 9.85697 11.1173Z" fill="white"/>
</svg>

<svg width="20" height="19" fill="none" xmlns="http://www.w3.org/2000/svg"><path d="M19.055 18.73H.66a.294.294 0 01-.302-.287v-1.632c0-2.715 2.326-4.924 5.185-4.924h8.63c2.859 0 5.185 2.21 5.185 4.924v1.632a.294.294 0 01-.302.287zm-9.198-7.613c-3.032 0-5.498-2.342-5.498-5.221 0-2.88 2.466-5.222 5.498-5.222s5.498 2.343 5.498 5.222c0 2.879-2.466 5.221-5.498 5.221z" fill="#fff"/></svg>
